src/img/logo.svg

<svg width="101" height="50" viewBox="0 0 101 50" fill="none" xmlns="http://www.w3.org/2000/svg">
<path d="M7.25584 15.5112V2.0813H1.97542V0.175267H14.7144V2.0813H9.43402V15.5112H7.25584Z" fill="#04E277"/>
<path d="M19.1129 6.79163H27.0335V8.65385H19.1129V6.79163ZM19.3109 13.6052H28.2876V15.5112H17.1107V0.175267H27.9796V2.0813H19.3109V13.6052Z" fill="#04E277"/>
<path d="M38.7153 15.6865C37.5418 15.6865 36.4564 15.4966 35.459 15.1168C34.4763 14.7225 33.6182 14.1748 32.8848 13.4737C32.1661 12.758 31.6014 11.9255 31.1907 10.9761C30.78 10.0268 30.5746 8.98247 30.5746 7.84323C30.5746 6.70399 30.78 5.65969 31.1907 4.71032C31.6014 3.76095 32.1734 2.93573 32.9068 2.23466C33.6402 1.51899 34.4983 0.971275 35.481 0.591528C36.4784 0.197176 37.5638 0 38.7373 0C39.9254 0 41.0181 0.204479 42.0155 0.613437C43.0276 1.00779 43.8857 1.59932 44.5897 2.38802L43.1596 3.76826C42.5729 3.15482 41.9129 2.70204 41.1795 2.40993C40.4461 2.10321 39.6613 1.94985 38.8253 1.94985C37.9599 1.94985 37.1531 2.09591 36.4051 2.38802C35.6717 2.68014 35.0336 3.08909 34.4909 3.6149C33.9482 4.1407 33.5229 4.76874 33.2148 5.49903C32.9215 6.2147 32.7748 6.99611 32.7748 7.84323C32.7748 8.69036 32.9215 9.47907 33.2148 10.2093C33.5229 10.925 33.9482 11.5458 34.4909 12.0716C35.0336 12.5974 35.6717 13.0063 36.4051 13.2984C37.1531 13.5906 37.9599 13.7366 38.8253 13.7366C39.6613 13.7366 40.4461 13.5906 41.1795 13.2984C41.9129 12.9917 42.5729 12.5243 43.1596 11.8963L44.5897 13.2765C43.8857 14.0652 43.0276 14.6641 42.0155 15.073C41.0181 15.482 39.918 15.6865 38.7153 15.6865Z" fill="#04E277"/>
<path d="M58.7733 0.175267H60.9735V15.5112H58.7733V0.175267ZM49.9286 15.5112H47.7284V0.175267H49.9286V15.5112ZM58.9713 8.67575H49.7086V6.76972H58.9713V8.67575Z" fill="#04E277"/>
<path d="M65.5834 15.5112V0.175267H67.3875L77.5743 12.7726H76.6283V0.175267H78.8284V15.5112H77.0243L66.8375 2.91383H67.7835V15.5112H65.5834Z" fill="#04E277"/>
<path d="M90.3909 15.6865C89.2174 15.6865 88.1247 15.4893 87.1126 15.0949C86.1152 14.7006 85.2498 14.1529 84.5164 13.4518C83.783 12.7361 83.211 11.9036 82.8003 10.9542C82.3896 10.0049 82.1842 8.96787 82.1842 7.84323C82.1842 6.7186 82.3896 5.6816 82.8003 4.73223C83.211 3.78286 83.783 2.95764 84.5164 2.25657C85.2498 1.54089 86.1152 0.98588 87.1126 0.591528C88.11 0.197176 89.2028 0 90.3909 0C91.5643 0 92.6424 0.197176 93.6251 0.591528C94.6225 0.971275 95.4879 1.51899 96.2213 2.23466C96.9694 2.93573 97.5414 3.76095 97.9375 4.71032C98.3482 5.65969 98.5535 6.70399 98.5535 7.84323C98.5535 8.98247 98.3482 10.0268 97.9375 10.9761C97.5414 11.9255 96.9694 12.758 96.2213 13.4737C95.4879 14.1748 94.6225 14.7225 93.6251 15.1168C92.6424 15.4966 91.5643 15.6865 90.3909 15.6865ZM90.3909 13.7366C91.2416 13.7366 92.0263 13.5906 92.7451 13.2984C93.4784 13.0063 94.1092 12.5974 94.6372 12.0716C95.1799 11.5312 95.598 10.9031 95.8913 10.1874C96.1993 9.47176 96.3533 8.69036 96.3533 7.84323C96.3533 6.99611 96.1993 6.2147 95.8913 5.49903C95.598 4.78335 95.1799 4.16261 94.6372 3.63681C94.1092 3.0964 93.4784 2.68014 92.7451 2.38802C92.0263 2.09591 91.2416 1.94985 90.3909 1.94985C89.5255 1.94985 88.7261 2.09591 87.9927 2.38802C87.2739 2.68014 86.6432 3.0964 86.1005 3.63681C85.5578 4.16261 85.1325 4.78335 84.8244 5.49903C84.5311 6.2147 84.3844 6.99611 84.3844 7.84323C84.3844 8.69036 84.5311 9.47176 84.8244 10.1874C85.1325 10.9031 85.5578 11.5312 86.1005 12.0716C86.6432 12.5974 87.2739 13.0063 87.9927 13.2984C88.7261 13.5906 89.5255 13.7366 90.3909 13.7366Z" fill="#04E277"/>
<path d="M9.75411 50C7.86033 50 6.02359 49.7501 4.2439 49.2502C2.48701 48.7277 1.07238 48.0574 0 47.2395L1.88237 43.0818C2.90912 43.8316 4.12981 44.4336 5.54444 44.888C6.95908 45.3424 8.37371 45.5696 9.78834 45.5696C11.3627 45.5696 12.5263 45.3424 13.2793 44.888C14.0322 44.4109 14.4087 43.7861 14.4087 43.0136C14.4087 42.4456 14.1805 41.9799 13.7242 41.6164C13.2907 41.2301 12.7203 40.9234 12.013 40.6962C11.3285 40.469 10.393 40.2191 9.20652 39.9464C7.38118 39.5148 5.88669 39.0831 4.72304 38.6514C3.5594 38.2197 2.55546 37.5268 1.71125 36.5725C0.889849 35.6183 0.47915 34.346 0.47915 32.7556C0.47915 31.3697 0.855624 30.1201 1.60857 29.0068C2.36152 27.8708 3.49095 26.9734 4.99684 26.3145C6.52556 25.6556 8.38512 25.3262 10.5755 25.3262C12.1042 25.3262 13.5987 25.508 15.059 25.8715C16.5192 26.235 17.797 26.7575 18.8922 27.4391L17.1809 31.631C14.9677 30.3814 12.7545 29.7566 10.5413 29.7566C8.98976 29.7566 7.83752 30.0065 7.08457 30.5063C6.35443 31.0062 5.98937 31.665 5.98937 32.483C5.98937 33.3009 6.41148 33.9143 7.25569 34.3233C8.12272 34.7095 9.43468 35.0957 11.1916 35.482C13.0169 35.9137 14.5114 36.3453 15.675 36.777C16.8387 37.2087 17.8312 37.8903 18.6526 38.8218C19.4968 39.7533 19.9189 41.0143 19.9189 42.6047C19.9189 43.9679 19.531 45.2175 18.7553 46.3535C18.0023 47.4667 16.8615 48.3528 15.3328 49.0117C13.8041 49.6706 11.9445 50 9.75411 50Z" fill="#04E277"/>
<path d="M45.6799 25.7351V49.591H40.1354V39.8101H29.2519V49.591H23.7075V25.7351H29.2519V35.1412H40.1354V25.7351H45.6799Z" fill="#04E277"/>
<path d="M62.9504 50C60.4634 50 58.2159 49.4661 56.2081 48.3983C54.223 47.3304 52.6601 45.865 51.5193 44.0019C50.4012 42.1162 49.8422 40.0032 49.8422 37.6631C49.8422 35.3229 50.4012 33.2214 51.5193 31.3583C52.6601 29.4726 54.223 27.9958 56.2081 26.9279C58.2159 25.8601 60.4634 25.3262 62.9504 25.3262C65.4374 25.3262 67.6734 25.8601 69.6585 26.9279C71.6435 27.9958 73.2065 29.4726 74.3473 31.3583C75.4881 33.2214 76.0586 35.3229 76.0586 37.6631C76.0586 40.0032 75.4881 42.1162 74.3473 44.0019C73.2065 45.865 71.6435 47.3304 69.6585 48.3983C67.6734 49.4661 65.4374 50 62.9504 50ZM62.9504 45.297C64.365 45.297 65.6428 44.9789 66.7836 44.3427C67.9244 43.6839 68.8143 42.7751 69.4531 41.6164C70.1148 40.4576 70.4457 39.1399 70.4457 37.6631C70.4457 36.1863 70.1148 34.8685 69.4531 33.7098C68.8143 32.5511 67.9244 31.6537 66.7836 31.0175C65.6428 30.3587 64.365 30.0292 62.9504 30.0292C61.5358 30.0292 60.258 30.3587 59.1172 31.0175C57.9764 31.6537 57.0751 32.5511 56.4134 33.7098C55.7746 34.8685 55.4551 36.1863 55.4551 37.6631C55.4551 39.1399 55.7746 40.4576 56.4134 41.6164C57.0751 42.7751 57.9764 43.6839 59.1172 44.3427C60.258 44.9789 61.5358 45.297 62.9504 45.297Z" fill="#04E277"/>
<path d="M90.5956 25.7351C92.7176 25.7351 94.5543 26.0873 96.1058 26.7916C97.6802 27.4959 98.8895 28.4956 99.7337 29.7907C100.578 31.0857 101 32.6193 101 34.3914C101 36.1409 100.578 37.6745 99.7337 38.9922C98.8895 40.2872 97.6802 41.2869 96.1058 41.9912C94.5543 42.6728 92.7176 43.0136 90.5956 43.0136H85.7699V49.591H80.2254V25.7351H90.5956ZM90.2876 38.5151C91.9532 38.5151 93.2195 38.1629 94.0866 37.4586C94.9536 36.7316 95.3871 35.7092 95.3871 34.3914C95.3871 33.051 94.9536 32.0286 94.0866 31.3242C93.2195 30.5972 91.9532 30.2337 90.2876 30.2337H85.7699V38.5151H90.2876Z" fill="#04E277"/>
</svg>

<svg width="101" height="50" fill="none" xmlns="http://www.w3.org/2000/svg"><path d="M7.256 15.511V2.081h-5.28V.175h12.738v1.906h-5.28v13.43H7.256Zm11.857-8.719h7.92v1.862h-7.92V6.792Zm.198 6.813h8.977v1.906H17.11V.175h10.87v1.906h-8.67v11.524Zm19.404 2.082c-1.173 0-2.259-.19-3.256-.57a7.988 7.988 0 0 1-2.574-1.643 7.936 7.936 0 0 1-1.694-2.498c-.411-.95-.616-1.994-.616-3.133s.205-2.183.616-3.133c.41-.95.982-1.774 1.716-2.475A7.528 7.528 0 0 1 35.48.592C36.478.197 37.564 0 38.737 0c1.188 0 2.281.204 3.279.613a6.616 6.616 0 0 1 2.574 1.775l-1.43 1.38a5.587 5.587 0 0 0-1.98-1.358 6.04 6.04 0 0 0-2.355-.46c-.865 0-1.672.146-2.42.438a5.806 5.806 0 0 0-1.914 1.227 5.645 5.645 0 0 0-1.276 1.884 6.123 6.123 0 0 0-.44 2.344c0 .847.147 1.636.44 2.366a5.703 5.703 0 0 0 1.276 1.863 5.81 5.81 0 0 0 1.914 1.226 6.593 6.593 0 0 0 2.42.439c.836 0 1.621-.146 2.354-.439a5.718 5.718 0 0 0 1.98-1.402l1.43 1.38a6.825 6.825 0 0 1-2.573 1.797c-.998.409-2.098.614-3.3.614ZM58.773.175h2.2v15.336h-2.2V.175ZM49.93 15.511h-2.2V.175h2.2v15.336Zm9.042-6.835H49.71V6.77h9.262v1.906Zm6.611 6.835V.175h1.805l10.186 12.598h-.946V.175h2.2v15.336h-1.804L66.838 2.914h.946V15.51h-2.2Zm24.807.176a8.953 8.953 0 0 1-3.277-.592 7.932 7.932 0 0 1-2.597-1.643 7.76 7.76 0 0 1-1.716-2.498c-.41-.95-.616-1.986-.616-3.11 0-1.125.206-2.162.616-3.112a7.514 7.514 0 0 1 1.716-2.475A7.754 7.754 0 0 1 87.113.592C88.11.197 89.203 0 90.39 0c1.173 0 2.251.197 3.234.592a7.47 7.47 0 0 1 2.596 1.643 7.103 7.103 0 0 1 1.716 2.475c.411.95.617 1.994.617 3.133 0 1.14-.206 2.184-.617 3.133a7.325 7.325 0 0 1-1.716 2.498 7.932 7.932 0 0 1-2.596 1.643c-.983.38-2.06.57-3.234.57Zm0-1.95c.852 0 1.636-.146 2.355-.439a5.564 5.564 0 0 0 3.146-3.11 5.867 5.867 0 0 0 .462-2.345c0-.847-.154-1.628-.462-2.344a5.428 5.428 0 0 0-1.254-1.862 5.408 5.408 0 0 0-1.892-1.249 6.195 6.195 0 0 0-2.354-.438 6.42 6.42 0 0 0-2.398.438A5.689 5.689 0 0 0 86.1 3.637a5.702 5.702 0 0 0-1.277 1.862 6.123 6.123 0 0 0-.44 2.344c0 .847.147 1.629.44 2.344a5.955 5.955 0 0 0 1.276 1.885 5.862 5.862 0 0 0 1.893 1.226 6.422 6.422 0 0 0 2.398.439ZM9.754 50c-1.894 0-3.73-.25-5.51-.75-1.757-.522-3.172-1.193-4.244-2.01l1.882-4.158c1.027.75 2.248 1.352 3.662 1.806 1.415.454 2.83.682 4.244.682 1.575 0 2.738-.228 3.491-.682.753-.477 1.13-1.102 1.13-1.874 0-.568-.229-1.034-.685-1.398-.433-.386-1.004-.693-1.711-.92-.684-.227-1.62-.477-2.806-.75-1.826-.431-3.32-.863-4.484-1.295a7.414 7.414 0 0 1-3.012-2.079C.89 35.618.48 34.346.48 32.756c0-1.386.377-2.636 1.13-3.75.753-1.135 1.882-2.033 3.388-2.692 1.529-.658 3.388-.988 5.579-.988 1.528 0 3.023.182 4.483.546 1.46.363 2.738.886 3.833 1.567l-1.711 4.192c-2.213-1.25-4.427-1.874-6.64-1.874-1.551 0-2.703.25-3.456.75-.73.5-1.096 1.158-1.096 1.976 0 .818.422 1.431 1.267 1.84.867.386 2.179.773 3.936 1.159 1.825.432 3.32.863 4.483 1.295a7.293 7.293 0 0 1 2.978 2.045c.844.931 1.266 2.192 1.266 3.783a6.506 6.506 0 0 1-1.164 3.748c-.753 1.114-1.893 2-3.422 2.659-1.529.659-3.389.988-5.579.988ZM45.68 25.735v23.856h-5.545v-9.78H29.252v9.78h-5.544V25.735h5.544v9.406h10.883v-9.406h5.545ZM62.95 50c-2.487 0-4.734-.534-6.742-1.602-1.985-1.068-3.548-2.533-4.689-4.396-1.118-1.886-1.677-3.999-1.677-6.339 0-2.34.56-4.442 1.677-6.305 1.141-1.885 2.704-3.362 4.69-4.43 2.007-1.068 4.254-1.602 6.741-1.602s4.723.534 6.709 1.602c1.984 1.068 3.547 2.545 4.688 4.43 1.141 1.863 1.712 3.965 1.712 6.305s-.57 4.453-1.712 6.339c-1.14 1.863-2.703 3.328-4.688 4.396C67.672 49.466 65.437 50 62.95 50Zm0-4.703c1.415 0 2.693-.318 3.834-.954a6.983 6.983 0 0 0 2.67-2.727c.66-1.158.992-2.476.992-3.953 0-1.477-.331-2.794-.993-3.953a6.75 6.75 0 0 0-2.67-2.693c-1.14-.658-2.418-.988-3.833-.988-1.414 0-2.692.33-3.833.988a6.984 6.984 0 0 0-2.704 2.693c-.638 1.158-.958 2.476-.958 3.953 0 1.477.32 2.795.958 3.953a7.23 7.23 0 0 0 2.704 2.727c1.141.636 2.419.954 3.833.954Zm27.646-19.562c2.122 0 3.958.352 5.51 1.057 1.574.704 2.784 1.704 3.628 2.999.844 1.295 1.266 2.828 1.266 4.6 0 1.75-.422 3.284-1.266 4.601-.844 1.295-2.054 2.295-3.628 3-1.552.68-3.388 1.022-5.51 1.022H85.77v6.577h-5.545V25.735h10.37Zm-.308 12.78c1.665 0 2.931-.352 3.799-1.056.867-.727 1.3-1.75 1.3-3.068 0-1.34-.433-2.362-1.3-3.067-.868-.727-2.134-1.09-3.8-1.09H85.77v8.281h4.518Z" fill="#04E277"/></svg>
